Origami/24x24/apps/KoboDeluxe.svg

<svg width="24" height="24" version="1.1" viewBox="0 0 24 24" xmlns="http://www.w3.org/2000/svg">
 <path d="m12.011516 2.4999992c-0.66814-0.0294317-1.297996 0.2913958-1.632408 0.8314939l-8.3163463 13.429804c-0.3233969 1.299419 0.6381108 2.265948 2.076195 2.9747 2.6975034 1.329449 7.0718323 1.751919 7.7881543 1.763147 1.181099 0.02571 4.760176-0.528192 7.315587-1.567078 1.943731-0.790212 3.295206-1.861016 2.548647-3.170769l-8.316347-13.429804c-0.304223-0.4913493-0.855653-0.8046504-1.463482-0.8314939z" style="opacity:.2"/>
 <path d="m12.011516 2c-0.66814-0.0294317-1.297996 0.2913958-1.632408 0.8314939l-8.3163463 13.429803c-0.3233969 1.299419 0.6381108 2.265948 2.076195 2.9747 2.6975034 1.329449 7.0718323 1.751919 7.7881543 1.763147 1.181099 0.02571 4.760176-0.528192 7.315587-1.567078 1.943731-0.790212 3.295206-1.861016 2.548647-3.170769l-8.316347-13.429803c-0.304223-0.4913493-0.855653-0.8046504-1.463482-0.8314939z" style="fill:#8e8e8e"/>
 <path d="m12 2.5c-0.02077 0-0.03988 0.00544-0.06055 0.00586-0.151391 0.00305-0.298389 0.02044-0.443359 0.044922-0.463539 0.1077907-0.871122 0.3838365-1.117188 0.78125l-1.378903 2.2265618v13.941406c0 2 1 3 3 3s3-1 3-3v-13.705078l-1.525391-2.4628907c-0.301166-0.4864119-0.844732-0.7958629-1.445312-0.828125-0.0081-7.89e-5 -0.01535-0.00389-0.02344-0.00391-2e-3 -3.8e-6 -0.0039 0-0.0059 0z" style="opacity:.2"/>
 <path d="m12 2c-0.02077 0-0.03988 0.00544-0.06055 0.00586-0.151391 0.00305-0.298389 0.02044-0.443359 0.044922-0.463539 0.1077907-0.871122 0.3838365-1.117188 0.78125l-1.378903 2.2265618v13.941406c0 2 1 3 3 3s3-1 3-3v-13.705078l-1.525391-2.4628907c-0.301166-0.4864119-0.844732-0.7958629-1.445312-0.828125-0.008076-7.89e-5 -0.015346-0.0038906-0.023438-0.0039062-0.001989-3.8e-6 -0.003868 0-0.005859 0z" style="fill:#686868"/>
 <rect x="5" y="9.5" width="2" height="12" rx="1.5" ry="1.5" style="opacity:.2"/>
 <path d="m12.011719 2c-0.66814-0.0294317-1.298401 0.2919332-1.632813 0.8320312l-8.316406 13.429688c-0.0654569 0.263008-0.0663222 0.507785-0.0332031 0.74414 0.0103853-0.081501 0.0122272-0.159858 0.0332031-0.24414l8.316406-13.429688c0.334412-0.540098 0.964673-0.8614629 1.632813-0.8320312 0.607829 0.0268435 1.158667 0.340682 1.46289 0.8320312l8.316407 13.429688c0.090285 0.158396 0.148108 0.311557 0.179687 0.46289 0.060708-0.30527 0.01284-0.625123-0.179687-0.96289l-8.316407-13.429688c-0.304223-0.4913492-0.855061-0.8051877-1.46289-0.8320312z" style="fill:#ffffff;opacity:.1"/>
 <rect x="5" y="9" width="2" height="12" rx="1.5" ry="1.5" style="fill:#afafb1"/>
 <rect x="17" y="9.5" width="2" height="12" rx="1.5" ry="1.5" style="opacity:.2"/>
 <rect x="17" y="9" width="2" height="12" rx="1.5" ry="1.5" style="fill:#afafb1"/>
 <ellipse cx="12" cy="14.5" rx="2" ry="2.5" style="fill:#64b0ff"/>
 <path d="m6.0000001 8.9999992c-0.554 0-1 0.669-1 1.4999998v0.5c0-0.831 0.446-1.4999998 1-1.4999998s1 0.6689998 1 1.4999998v-0.5c0-0.8309998-0.446-1.4999998-1-1.4999998z" style="fill:#ffffff;opacity:.2"/>
 <path d="m18 8.9999992c-0.554 0-1 0.669-1 1.4999998v0.5c0-0.831 0.446-1.4999998 1-1.4999998s1 0.6689998 1 1.4999998v-0.5c0-0.8309998-0.446-1.4999998-1-1.4999998z" style="fill:#ffffff;opacity:.2"/>
</svg>

<svg xmlns="http://www.w3.org/2000/svg" width="24" height="24" version="1.1" viewBox="0 0 24 24">
 <path style="opacity:0.2" d="M 12.011516,2.4999992 C 11.343376,2.4705675 10.71352,2.791395 10.379108,3.3314931 L 2.0627617,16.761297 c -0.3233969,1.299419 0.6381108,2.265948 2.076195,2.9747 2.6975034,1.329449 7.0718323,1.751919 7.7881543,1.763147 1.181099,0.02571 4.760176,-0.528192 7.315587,-1.567078 1.943731,-0.790212 3.295206,-1.861016 2.548647,-3.170769 L 13.474998,3.3314931 C 13.170775,2.8401438 12.619345,2.5268427 12.011516,2.4999992 Z"/>
 <path style="fill:#8e8e8e" d="M 12.011516,2 C 11.343376,1.9705683 10.71352,2.2913958 10.379108,2.8314939 L 2.0627617,16.261297 c -0.3233969,1.299419 0.6381108,2.265948 2.076195,2.9747 2.6975034,1.329449 7.0718323,1.751919 7.7881543,1.763147 1.181099,0.02571 4.760176,-0.528192 7.315587,-1.567078 1.943731,-0.790212 3.295206,-1.861016 2.548647,-3.170769 L 13.474998,2.8314939 C 13.170775,2.3401446 12.619345,2.0268435 12.011516,2 Z"/>
 <path style="opacity:0.2" d="m 12,2.5 c -0.02077,0 -0.03988,0.00544 -0.06055,0.00586 -0.151391,0.00305 -0.298389,0.02044 -0.443359,0.044922 -0.463539,0.1077907 -0.871122,0.3838365 -1.117188,0.78125 L 9,5.5585938 V 19.5 c 0,2 1,3 3,3 2,0 3,-1 3,-3 V 5.7949219 L 13.474609,3.3320312 c -0.301166,-0.4864119 -0.844732,-0.7958629 -1.445312,-0.828125 -0.0081,-7.89e-5 -0.01535,-0.00389 -0.02344,-0.00391 -0.002,-3.8e-6 -0.0039,0 -0.0059,0 z"/>
 <path style="fill:#686868" d="m 12,2 c -0.02077,0 -0.03988,0.00544 -0.06055,0.00586 -0.151391,0.00305 -0.298389,0.02044 -0.443359,0.044922 -0.463539,0.1077907 -0.871122,0.3838365 -1.117188,0.78125 L 9,5.0585938 V 19 c 0,2 1,3 3,3 2,0 3,-1 3,-3 V 5.2949219 L 13.474609,2.8320312 C 13.173443,2.3456193 12.629877,2.0361683 12.029297,2.0039062 12.021221,2.0038273 12.013951,2.0000156 12.005859,2 12.00387,1.9999962 12.001991,2 12,2 Z"/>
 <rect style="opacity:0.2" width="2" height="12" x="5" y="9.5" rx="1.5" ry="1.5"/>
 <path style="opacity:0.1;fill:#ffffff" d="M 12.011719 2 C 11.343579 1.9705683 10.713318 2.2919332 10.378906 2.8320312 L 2.0625 16.261719 C 1.9970431 16.524727 1.9961778 16.769504 2.0292969 17.005859 C 2.0396822 16.924358 2.0415241 16.846001 2.0625 16.761719 L 10.378906 3.3320312 C 10.713318 2.7919332 11.343579 2.4705683 12.011719 2.5 C 12.619548 2.5268435 13.170386 2.840682 13.474609 3.3320312 L 21.791016 16.761719 C 21.881301 16.920115 21.939124 17.073276 21.970703 17.224609 C 22.031411 16.919339 21.983543 16.599486 21.791016 16.261719 L 13.474609 2.8320312 C 13.170386 2.340682 12.619548 2.0268435 12.011719 2 z"/>
 <rect style="fill:#afafb1" width="2" height="12" x="5" y="9" rx="1.5" ry="1.5"/>
 <rect style="opacity:0.2" width="2" height="12" x="17" y="9.5" rx="1.5" ry="1.5"/>
 <rect style="fill:#afafb1" width="2" height="12" x="17" y="9" rx="1.5" ry="1.5"/>
 <ellipse style="fill:#64b0ff" cx="12" cy="14.5" rx="2" ry="2.5"/>
 <path style="opacity:0.2;fill:#ffffff" d="m 6.0000001,8.9999992 c -0.554,0 -1,0.669 -1,1.4999998 v 0.5 c 0,-0.831 0.446,-1.4999998 1,-1.4999998 0.554,0 1,0.6689998 1,1.4999998 v -0.5 c 0,-0.8309998 -0.446,-1.4999998 -1,-1.4999998 z"/>
 <path style="opacity:0.2;fill:#ffffff" d="m 18,8.9999992 c -0.554,0 -1,0.669 -1,1.4999998 v 0.5 c 0,-0.831 0.446,-1.4999998 1,-1.4999998 0.554,0 1,0.6689998 1,1.4999998 v -0.5 C 19,9.6689992 18.554,8.9999992 18,8.9999992 Z"/>
</svg>
